X:1
T:As We March Beneath His Banner
T:As We March Beneath His Banner
T:Adam Geibel
T:Lavinia E. Brauff, 1904
T:Public Domain Courtesy of the Cyber Hymnal™
T:Public Domain Courtesy of the Cyber Hymnal™
C:Adam Geibel
Z:Public Domain
Z:Courtesy of the Cyber Hymnal™
%%score ( 1 2 ) ( 3 4 )
L:1/8
Q:1/4=106
M:6/8
K:Eb
V:1 treble 
V:2 treble 
V:3 bass 
V:4 bass 
V:1
 B2 B | [Ge]2 [Ge] [Gd]2 [Gd] | [Gc]2 [Gc] ([GB][^F=A])[GB] | [Gc]2 [Gc] [GB]2 E | %4
w: 1.~There is|mu- sic in the|stream- let Flow- * ing|’neath the a- zure|
w: 2.~There is|beau- ty in the|sun- shine That * pro-|vides the world with|
w: 3.~Prais- es|and e- ter- nal|glo- ry To * our|heav’n- ly king be-|
 [EG]2 z (G^F)[EG] | [DB]2 [DA] (AG)[DA] | [Gc]2 [GB] (B=A)[GB] | [=Ad]2 [Ac] [Ad]2 [Ac] | %8
w: sky; Ev- * ery|bird pro- claims * a|car- ol To * the|God who rules on|
w: light; Ev- * ery|leaf re- news * its|bright- ness, When * re-|freshed with dew of|
w: long; Of * His|good- ness and * His|mer- cy Let * us|tell in joy- ful|
 B2 z B2 B | [Ge]2 [Ge] [Gd]2 [Gd] | [Gc]2 [Gc] ([GB][^F=A])[GB] | [Gc]2 [Gc] [GB]2 E | %12
w: high; Ev- ery|flower im- parts a|mess- age To * the|bless- èd Lord of|
w: night; Ev- ery|cloud re- news its|grand- eur, E’en * when|storm- y bil- lows|
w: song; We may|drop a word of|kind- ness That * may|quell the com- ing|
 [EG]2 z (G^F)[EG] | [EG]2 [EF] [E=A]2 [Ec] | [Fe]2 [Fd] (B=A)[FB] | %15
w: all Who * to-|day is kind- ly|watch- ing O- * ver|
w: roll; But * the|beau- ty Je- sus|love- th Is * the|
w: foe; Let * us|la- bor for the|Mas- ter While * we|
 [Fd]2 [Ec] [E=A]2 [EF] [DB]2 z ||[Q:1/4=100] B>"^Refrain"G x | A4- A>Bc>d | G2 G3 z B>G | %19
w: na- tions great and small.||||
w: beau- ty of the soul.|As we|march * be- neath His|ban- ner, Point- ing|
w: tar- ry here be- low.||||
 A4- A>Bd>f | B6 (3(EG)B | e4- e>EF>G | (A2 B2) [_Ec]2 [^EFc]>[EFc] | [EGB]2 [GBe]2 [FAd]3 [DAB] | %24
w: |||||
w: to * the realms a-|bove, Let * us|ask * Him to go|with * us, And to|fill our hearts with|
w: |||||
 [EGBe]6 x2 |] x6 |] %26
w: ||
w: love.||
w: ||
V:2
 B2 B | x6 | x6 | x5 E | x3 E2 x | x3 D2 x | x3 G2 x | x6 | B2 B2 B x | x6 | x6 | x5 E | x3 E2 x | %13
 x6 | x3 F2 x | x9 || x3 | x8 | x8 | x8 | x8 | x8 | ^E4 x4 | x8 | x8 |] x6 |] %26
V:3
 B,2 B, | [E,B,]2 [E,B,] [B,,B,]2 [B,,B,] | [E,B,]2 [E,B,] [B,,B,]2 [B,,B,] | %3
 [E,B,]2 [E,B,] [E,E]2 [E,G,] | [E,B,]2 z [E,B,]2 [E,B,] | [F,B,]2 [F,B,] [B,,B,]2 [B,,B,] | %6
 [E,B,]2 [E,B,] [E,E]2 [E,E] | [F,E]2 [F,E] [F,E]2 [F,E] | [B,D]2 z B,2 B, | %9
 [E,B,]2 [E,B,] [B,,B,]2 [B,,B,] | [E,B,]2 [E,B,] [B,,B,]2 [B,,B,] | [E,B,]2 [E,B,] [E,E]2 [E,G,] | %12
 [E,B,]2 z [E,B,]2 [E,B,] | [F,=A,]2 [F,A,] [F,C]2 [F,A,] | [B,,B,]2 [B,,B,] [D,B,]2 [D,B,] | %15
 [F,=A,]2 [F,A,] [F,C]2 [F,A,] x3 || [B,,B,]2 z | z2 x6 | %18
 (F,>[A,B,D][A,D]>[A,B,D] .[G,D]2) .[B,,B,]2 | %19
 ([E,,E,]>[G,B,E][G,B,E]>[G,B,E] .[G,B,E]2) .[G,B,E]2 | %20
 ([F,,F,]>[A,B,D][A,B,D]>[A,B,D] .[A,D]2) .[B,,B,]2 | %21
 ([F,,E,]>[G,B,E][G,B,E]>[G,B,E] [G,B,E]2) z2 | %22
 ([E,G,B,]>[E,G,B,][E,G,B,]>[E,G,B,] [_D,E,G,B,]2) [D,E,G,B,]2 | %23
 ([C,E,A,]2 [B,,E,G,]2) [A,,A,]2 [=A,,=A,]2 | [B,,B,]2 [B,,B,]2 [B,,B,]3 [B,,B,] |] [E,,E,]6 |] %26
V:4
 B,2 B, | x6 | x6 | x6 | x6 | x6 | x6 | x6 | x3 B,2 B, | x6 | x6 | x6 | x6 | x6 | x6 | x9 || x3 | %17
 x8 | x8 | x8 | x8 | x8 | x8 | x8 | x8 |] x6 |] %26

